flaticon/medical/finger-1.svg

<svg xmlns="http://www.w3.org/2000/svg" width="32" height="32" viewBox="0 0 24 24">
    <path d="M3.375 14.941406C3.375 15.171875 3.1875 15.363281 2.953125 15.363281 2.71875 15.363281 2.53125 15.171875 2.53125 14.941406 2.53125 14.707031 2.71875 14.519531 2.953125 14.519531 3.1875 14.519531 3.375 14.707031 3.375 14.941406zM5.0625 14.941406C5.0625 15.171875 4.875 15.363281 4.640625 15.363281 4.40625 15.363281 4.21875 15.171875 4.21875 14.941406 4.21875 14.707031 4.40625 14.519531 4.640625 14.519531 4.875 14.519531 5.0625 14.707031 5.0625 14.941406zM3.375 16.628906C3.375 16.859375 3.1875 17.050781 2.953125 17.050781 2.71875 17.050781 2.53125 16.859375 2.53125 16.628906 2.53125 16.394531 2.71875 16.207031 2.953125 16.207031 3.1875 16.207031 3.375 16.394531 3.375 16.628906zM4.21875 15.785156C4.21875 16.015625 4.03125 16.207031 3.796875 16.207031 3.5625 16.207031 3.375 16.015625 3.375 15.785156 3.375 15.550781 3.5625 15.363281 3.796875 15.363281 4.03125 15.363281 4.21875 15.550781 4.21875 15.785156zM5.0625 16.628906C5.0625 16.859375 4.875 17.050781 4.640625 17.050781 4.40625 17.050781 4.21875 16.859375 4.21875 16.628906 4.21875 16.394531 4.40625 16.207031 4.640625 16.207031 4.875 16.207031 5.0625 16.394531 5.0625 16.628906zM5.90625 17.472656C5.90625 17.703125 5.71875 17.894531 5.484375 17.894531 5.25 17.894531 5.0625 17.703125 5.0625 17.472656 5.0625 17.238281 5.25 17.050781 5.484375 17.050781 5.71875 17.050781 5.90625 17.238281 5.90625 17.472656zM5.90625 17.472656"/>
    <path d="M 23.777344 7.347656 C 23.539062 6.859375 23.144531 6.492188 22.675781 6.289062 L 23.253906 5.710938 C 23.746094 5.214844 23.746094 4.414062 23.253906 3.917969 C 22.761719 3.425781 21.957031 3.425781 21.464844 3.917969 L 20.199219 5.183594 L 18.933594 3.917969 C 18.457031 3.441406 17.621094 3.441406 17.144531 3.917969 C 16.90625 4.15625 16.773438 4.476562 16.773438 4.8125 C 16.773438 5.152344 16.90625 5.472656 17.144531 5.710938 L 17.542969 6.105469 L 13.515625 6.105469 C 14.1875 5.65625 14.75 4.984375 14.75 3.996094 L 14.75 3.574219 L 6.808594 3.574219 C 6.015625 3.574219 5.238281 3.710938 4.496094 3.976562 C 1.808594 4.949219 0 7.523438 0 10.382812 L 0 15.371094 C 0 18.171875 2.277344 20.449219 5.078125 20.449219 L 12.851562 20.449219 C 13.898438 20.449219 14.75 19.597656 14.75 18.550781 L 14.75 18.128906 C 14.75 17.652344 14.574219 17.21875 14.285156 16.882812 C 15.074219 16.554688 15.59375 15.839844 15.59375 14.964844 C 15.59375 14.421875 15.390625 13.921875 15.058594 13.550781 C 15.796875 13.261719 16.347656 12.597656 16.429688 11.808594 C 16.480469 11.277344 16.332031 10.746094 16.015625 10.324219 L 21.976562 10.324219 C 22.59375 10.324219 23.175781 10.027344 23.578125 9.507812 C 24.058594 8.878906 24.132812 8.074219 23.777344 7.347656 Z M 22.0625 4.515625 C 22.226562 4.351562 22.492188 4.351562 22.65625 4.515625 C 22.820312 4.679688 22.820312 4.949219 22.65625 5.113281 L 21.664062 6.105469 L 20.988281 6.105469 C 20.984375 6.097656 20.980469 6.09375 20.980469 6.085938 C 20.96875 6.0625 20.957031 6.039062 20.945312 6.019531 C 20.925781 5.980469 20.902344 5.941406 20.878906 5.90625 C 20.863281 5.882812 20.847656 5.863281 20.832031 5.839844 C 20.820312 5.820312 20.808594 5.800781 20.792969 5.785156 Z M 17.738281 4.515625 C 17.90625 4.351562 18.171875 4.351562 18.335938 4.515625 L 19.601562 5.78125 L 19.929688 6.105469 L 18.734375 6.105469 L 17.738281 5.113281 C 17.574219 4.949219 17.574219 4.679688 17.738281 4.515625 Z M 14.75 9.480469 L 9.28125 9.480469 C 9.046875 9.480469 8.859375 9.671875 8.859375 9.902344 C 8.859375 10.136719 9.046875 10.324219 9.28125 10.324219 L 14.328125 10.324219 C 14.683594 10.324219 15.027344 10.476562 15.269531 10.746094 C 15.511719 11.015625 15.625 11.359375 15.589844 11.722656 C 15.523438 12.359375 14.9375 12.855469 14.25 12.855469 L 9.703125 12.855469 C 9.46875 12.855469 9.28125 13.046875 9.28125 13.277344 C 9.28125 13.511719 9.46875 13.699219 9.703125 13.699219 L 13.527344 13.699219 C 14.203125 13.699219 14.75 14.269531 14.75 14.964844 C 14.75 15.710938 14.152344 16.230469 13.289062 16.230469 L 10.546875 16.230469 C 10.3125 16.230469 10.125 16.417969 10.125 16.652344 C 10.125 16.886719 10.3125 17.074219 10.546875 17.074219 L 12.851562 17.074219 C 13.433594 17.074219 13.90625 17.546875 13.90625 18.128906 L 13.90625 18.550781 C 13.90625 19.132812 13.433594 19.605469 12.851562 19.605469 L 5.078125 19.605469 C 2.742188 19.605469 0.84375 17.707031 0.84375 15.371094 L 0.84375 10.382812 C 0.84375 7.878906 2.425781 5.621094 4.785156 4.773438 C 5.429688 4.539062 6.113281 4.417969 6.808594 4.417969 L 13.847656 4.417969 C 13.46875 5.648438 11.507812 6.058594 11.242188 6.105469 L 7.59375 6.105469 C 7.359375 6.105469 7.171875 6.296875 7.171875 6.527344 C 7.171875 6.761719 7.359375 6.949219 7.59375 6.949219 L 18.558594 6.949219 L 18.558594 9.480469 Z M 19.402344 9.480469 L 19.402344 6.949219 L 20.277344 6.949219 L 20.667969 6.953125 L 20.667969 9.480469 Z M 22.910156 8.992188 C 22.667969 9.304688 22.328125 9.480469 21.976562 9.480469 L 21.511719 9.480469 L 21.511719 6.953125 L 21.828125 6.953125 C 22.433594 6.960938 22.839844 7.351562 23.019531 7.71875 C 23.230469 8.148438 23.191406 8.625 22.910156 8.992188 Z M 22.910156 8.992188"/>
    <path d="M12.65625 7.371094C12.421875 7.371094 12.234375 7.5625 12.234375 7.792969L12.234375 8.636719C12.234375 8.871094 12.421875 9.058594 12.65625 9.058594 12.890625 9.058594 13.078125 8.871094 13.078125 8.636719L13.078125 7.792969C13.078125 7.5625 12.890625 7.371094 12.65625 7.371094zM13.921875 7.371094C13.6875 7.371094 13.5 7.5625 13.5 7.792969L13.5 8.636719C13.5 8.871094 13.6875 9.058594 13.921875 9.058594 14.15625 9.058594 14.34375 8.871094 14.34375 8.636719L14.34375 7.792969C14.34375 7.5625 14.15625 7.371094 13.921875 7.371094zM13.921875 7.371094"/>
</svg>

<svg xmlns="http://www.w3.org/2000/svg" width="32" height="32" viewBox="0 0 24 24">
    <path d="M3.375 14.941a.423.423 0 1 1-.845-.001.423.423 0 0 1 .845.001zm0 0M5.063 14.941a.423.423 0 1 1-.846-.001.423.423 0 0 1 .846.001zm0 0M3.375 16.629a.423.423 0 1 1-.845-.002.423.423 0 0 1 .845.002zm0 0M4.219 15.785a.423.423 0 1 1-.845-.001.423.423 0 0 1 .845.001zm0 0M5.063 16.629a.423.423 0 1 1-.846-.002.423.423 0 0 1 .846.002zm0 0M5.906 17.473a.423.423 0 1 1-.845-.002.423.423 0 0 1 .845.002zm0 0"/>
    <path d="M23.777 7.348a2.198 2.198 0 0 0-1.101-1.059l.578-.578a1.273 1.273 0 0 0 0-1.793 1.268 1.268 0 0 0-1.79 0L20.2 5.184l-1.265-1.266c-.477-.477-1.313-.477-1.79 0a1.265 1.265 0 0 0 0 1.793l.399.394h-4.027c.671-.449 1.234-1.12 1.234-2.109v-.422H6.809c-.793 0-1.57.137-2.313.403A6.834 6.834 0 0 0 0 10.383v4.988c0 2.8 2.277 5.078 5.078 5.078h7.774a1.9 1.9 0 0 0 1.898-1.898v-.422c0-.477-.176-.91-.465-1.246.79-.328 1.309-1.043 1.309-1.918a2.12 2.12 0 0 0-.535-1.414c.738-.29 1.289-.953 1.37-1.742a2.138 2.138 0 0 0-.413-1.485h5.96c.618 0 1.2-.297 1.602-.816.48-.63.555-1.434.2-2.16zm-1.715-2.832a.42.42 0 0 1 .594 0 .424.424 0 0 1 0 .597l-.992.992h-.676c-.004-.007-.008-.011-.008-.02a1.029 1.029 0 0 0-.035-.065 1.076 1.076 0 0 0-.066-.114l-.047-.066c-.012-.02-.023-.04-.039-.055zm-4.324 0a.424.424 0 0 1 .598 0l1.266 1.265.328.324h-1.196l-.996-.992a.424.424 0 0 1 0-.597zM14.75 9.48H9.281a.423.423 0 0 0 0 .844h5.047c.356 0 .7.153.942.422.242.27.355.613.32.977-.067.636-.652 1.132-1.34 1.132H9.703a.423.423 0 0 0 0 .844h3.824c.676 0 1.223.57 1.223 1.266 0 .746-.598 1.265-1.46 1.265h-2.743a.42.42 0 0 0-.422.422.42.42 0 0 0 .422.422h2.305c.582 0 1.054.473 1.054 1.055v.422c0 .582-.472 1.054-1.054 1.054H5.078a4.238 4.238 0 0 1-4.234-4.234v-4.988a5.975 5.975 0 0 1 5.965-5.965h7.039c-.38 1.23-2.34 1.64-2.606 1.687H7.594a.423.423 0 0 0 0 .844h10.965V9.48zm4.652 0V6.95h.875l.391.003V9.48zm3.508-.488c-.242.313-.582.488-.933.488h-.465V6.953h.316a1.347 1.347 0 0 1 1.192.766c.21.43.171.906-.11 1.273zm0 0"/>
    <path d="M12.656 7.371a.423.423 0 0 0-.422.422v.844a.42.42 0 0 0 .422.422.42.42 0 0 0 .422-.422v-.844a.423.423 0 0 0-.422-.422zm0 0M13.922 7.371a.423.423 0 0 0-.422.422v.844a.42.42 0 0 0 .422.422.42.42 0 0 0 .422-.422v-.844a.423.423 0 0 0-.422-.422zm0 0"/>
</svg>
